X:153
T: Da guang deng
N: C1649
O: China, Hebei, Jingyian
S: IV, 94]
R: Wuge, Taipingqiao]
M: 2/4
L: 1/16
K: G
d2e2d4 | d2e2d4 | d2e2d4 | d2e2d4
g3eg2ge | d2e2d4
d3ed2e2 | g4e2d2 | z2G2G2A2 | d4B2A2
z2d4A2 | B3Ad2E2 | G4d2d2 | EGABG4

